X: 539
T: Daio xianxian
L: 1/8
M: 2/4
K: A
c eF2 [I:setbarnb 1]| 
c ef2 | 
c> B B c | 
f4 | 
c eF2 | 
c ef2 | 
c e f c | 
B4 |]

@@@ Tune index: 9413
